X: 1
T: Juletr\aet [F]
T: H\ojt fra tr\aets gr\onne top
C: P.Faber & E.Horneman
Z: John Chambers <jc@trillian.mit.edu>
M: C
L: 1/8
K: F
%%staffsep 50
| "F"[AF][cA] "C7"[BG][GE] "F"[AF][fA] [c2A2] \
| [dB][cA] [AF][FC] "C7"[G2E2] "F"[A2F2] \
| "C"[GE][cG] [ec][GE] "G7"[GD]>F "C"[E2C2] \
| "C"[EC][GE] [cG][EC] "G7"[D2=B,2] "C"[C2G,2] \
| "C7"[D_B,][EC] "F"[FC][AF] "C7"[cG]>B "F"[A2F2] |
| "F7"[G_E][AF] "Bb"[BF][dB] "F7"[fd]>_e "Bb"[d2B2] \
| "F"[AF][fc] "Gm"[dB][BG] "C7"[G2E2] "F"[A2F2] \
| "Gm"[BG][dB] [BG][GD] "C7"[E2C2] "F"[F2A,2] \
| "C7"[GE][dB] "F"[c2A2] "C7"[GE][dB] "F"[c2A2] \
| "G7"[=BG][fd] "C7"[ec][g_B] "F"[f4A4] |]
%%sep 1 1 500
